X: 40
M:C|
L:1/8
K:G
uD2|\
|:ud2|\
dggg fgaf | gfge d2(ef) | {a}gfge dBcA | BGAG FDEF |


